assets/svg/tray-indicator-pause-g1.svg

<?xml version="1.0" encoding="UTF-8" standalone="no"?>
<svg
   width="110.00002"
   height="110"
   viewBox="0 0 29.104173 29.104166"
   version="1.1"
   id="svg8"
   inkscape:version="1.2.2 (b0a8486541, 2022-12-01)"
   sodipodi:docname="tray-indicator-pause-g1.svg"
   xmlns:inkscape="http://www.inkscape.org/namespaces/inkscape"
   xmlns:sodipodi="http://sodipodi.sourceforge.net/DTD/sodipodi-0.dtd"
   xmlns:xlink="http://www.w3.org/1999/xlink"
   xmlns="http://www.w3.org/2000/svg"
   xmlns:svg="http://www.w3.org/2000/svg"
   xmlns:rdf="http://www.w3.org/1999/02/22-rdf-syntax-ns#"
   xmlns:cc="http://creativecommons.org/ns#"
   xmlns:dc="http://purl.org/dc/elements/1.1/">
  <defs
     id="defs2">
    <linearGradient
       inkscape:collect="always"
       xlink:href="#linearGradient2030"
       id="linearGradient2066"
       gradientUnits="userSpaceOnUse"
       gradientTransform="matrix(1.098034,0,0,1.0981512,-28.979449,155.24762)"
       x1="69.820984"
       y1="16.022331"
       x2="55.546982"
       y2="36.762196" />
    <linearGradient
       id="linearGradient2030"
       inkscape:collect="always">
      <stop
         id="stop2026"
         offset="0"
         style="stop-color:#c0c0c0;stop-opacity:0.99607843;" />
      <stop
         id="stop2028"
         offset="1"
         style="stop-color:#858585;stop-opacity:1;" />
    </linearGradient>
  </defs>
  <sodipodi:namedview
     id="base"
     pagecolor="#212121"
     bordercolor="#666666"
     borderopacity="1.0"
     inkscape:pageopacity="0"
     inkscape:pageshadow="2"
     inkscape:zoom="3.959798"
     inkscape:cx="-50.12882"
     inkscape:cy="55.305851"
     inkscape:document-units="mm"
     inkscape:current-layer="layer1"
     showgrid="false"
     inkscape:pagecheckerboard="false"
     fit-margin-top="0"
     fit-margin-left="0"
     fit-margin-right="0"
     fit-margin-bottom="0"
     units="px"
     inkscape:window-width="1499"
     inkscape:window-height="991"
     inkscape:window-x="26"
     inkscape:window-y="23"
     inkscape:window-maximized="0"
     inkscape:document-rotation="0"
     inkscape:showpageshadow="2"
     inkscape:deskcolor="#212121" />
  <metadata
     id="metadata5">
    <rdf:RDF>
      <cc:Work
         rdf:about="">
        <dc:format>image/svg+xml</dc:format>
        <dc:type
           rdf:resource="http://purl.org/dc/dcmitype/StillImage" />
      </cc:Work>
    </rdf:RDF>
  </metadata>
  <g
     inkscape:label="Layer 1"
     inkscape:groupmode="layer"
     id="layer1"
     transform="translate(-22.868851,-174.73938)">
    <ellipse
       inkscape:export-ydpi="28.54953"
       inkscape:export-xdpi="28.54953"
       inkscape:export-filename="/home/kai/Tauon/dev/assets/1.25x/v4-a.png"
       style="display:inline;fill:url(#linearGradient2066);fill-opacity:1;stroke:none;stroke-width:2.92119;stroke-linecap:butt;stroke-linejoin:miter;stroke-miterlimit:9.5;stroke-dasharray:none;stroke-opacity:1;font-variation-settings:normal;opacity:1;vector-effect:none;stroke-dashoffset:0;-inkscape-stroke:none;stop-color:#000000;stop-opacity:1"
       id="circle2054-3"
       cx="37.418373"
       cy="189.29033"
       rx="13.383132"
       ry="13.384562" />
    <ellipse
       style="display:inline;fill:#313131;fill-opacity:1;stroke:none;stroke-width:0.94436;stroke-linecap:butt;stroke-linejoin:miter;stroke-miterlimit:9.5;stroke-dasharray:none;stroke-opacity:1"
       id="circle2056"
       cx="37.068222"
       cy="189.2549"
       inkscape:export-filename="/home/kai/Tauon/dev/assets/1.25x/v4-a.png"
       inkscape:export-xdpi="28.54953"
       inkscape:export-ydpi="28.54953"
       rx="4.6428323"
       ry="4.6433277" />
    <ellipse
       inkscape:export-ydpi="28.54953"
       inkscape:export-xdpi="28.54953"
       inkscape:export-filename="/home/kai/Tauon/dev/assets/1.25x/v4-a.png"
       style="display:inline;fill:#ffffff;fill-opacity:1;stroke:none;stroke-width:2.92119;stroke-linecap:butt;stroke-linejoin:miter;stroke-miterlimit:9.5;stroke-dasharray:none;stroke-opacity:1"
       id="circle2058"
       cx="37.068222"
       cy="189.2549"
       rx="0.78012902"
       ry="0.78021222" />
    <path
       inkscape:export-ydpi="28.54953"
       inkscape:export-xdpi="28.54953"
       inkscape:export-filename="/home/kai/Tauon/dev/assets/1.25x/v4-a.png"
       d="m 46.75703,189.43707 a 9.3386574,9.339654 0 0 1 -5.377204,8.4577"
       sodipodi:end="1.1327187"
       sodipodi:start="0"
       sodipodi:ry="9.339654"
       sodipodi:rx="9.3386574"
       sodipodi:cy="189.43707"
       sodipodi:cx="37.418373"
       sodipodi:type="arc"
       id="path2060"
       style="display:inline;fill:none;fill-opacity:1;stroke:#ffffff;stroke-width:5.32974;stroke-linecap:butt;stroke-linejoin:miter;stroke-miterlimit:12.4;stroke-dasharray:none;stroke-opacity:0.376289"
       sodipodi:arc-type="arc"
       sodipodi:open="true" />
    <path
       inkscape:export-ydpi="28.54953"
       inkscape:export-xdpi="28.54953"
       inkscape:export-filename="/home/kai/Tauon/dev/assets/1.25x/v4-a.png"
       transform="scale(-1)"
       style="display:inline;fill:none;fill-opacity:1;stroke:#ffffff;stroke-width:5.32974;stroke-linecap:butt;stroke-linejoin:miter;stroke-miterlimit:12.4;stroke-dasharray:none;stroke-opacity:0.376289"
       id="path2062"
       sodipodi:type="arc"
       sodipodi:cx="-37.358078"
       sodipodi:cy="-189.25957"
       sodipodi:rx="9.3386574"
       sodipodi:ry="9.339654"
       sodipodi:start="0"
       sodipodi:end="1.1327187"
       d="m -28.019421,-189.25957 a 9.3386574,9.339654 0 0 1 -5.377204,8.4577"
       sodipodi:arc-type="arc"
       sodipodi:open="true" />
    <path
       style="display:inline;opacity:0.187;fill:#fef2fd;fill-opacity:1;stroke:none;stroke-width:2.92119;stroke-linecap:butt;stroke-linejoin:miter;stroke-miterlimit:9.5;stroke-dasharray:none;stroke-opacity:1"
       d="m 37.42275,175.91295 a 13.383133,13.384562 0 0 0 -13.383276,13.3847 13.383133,13.384562 0 0 0 0.0076,0.21509 13.383133,13.384562 0 0 1 13.375897,-13.23262 13.383133,13.384562 0 0 1 13.375912,13.16963 13.383133,13.384562 0 0 0 0.0077,-0.1521 13.383133,13.384562 0 0 0 -13.383281,-13.3847 z"
       id="circle2038"
       inkscape:connector-curvature="0"
       inkscape:export-filename="/home/kai/Tauon/dev/assets/1.25x/v4-a.png"
       inkscape:export-xdpi="28.54953"
       inkscape:export-ydpi="28.54953" />
    <path
       style="display:inline;fill:#000000;fill-opacity:0.0912281;stroke:none;stroke-width:2.92119;stroke-linecap:butt;stroke-linejoin:miter;stroke-miterlimit:9.5;stroke-dasharray:none;stroke-opacity:1"
       d="m 50.793062,189.05362 a 13.383133,13.384562 0 0 1 -13.374685,13.21565 13.383133,13.384562 0 0 1 -13.374687,-13.14602 13.383133,13.384562 0 0 0 -0.0085,0.16936 13.383133,13.384562 0 0 0 13.383137,13.38456 13.383133,13.384562 0 0 0 13.383139,-13.38456 13.383133,13.384562 0 0 0 -0.0085,-0.23899 z"
       id="circle823"
       inkscape:connector-curvature="0"
       inkscape:export-filename="/home/kai/Tauon/dev/assets/1.25x/v4-a.png"
       inkscape:export-xdpi="28.54953"
       inkscape:export-ydpi="28.54953" />
    <g
       id="g845"
       style="opacity:1">
      <path
         style="color:#000000;font-style:normal;font-variant:normal;font-weight:normal;font-stretch:normal;font-size:medium;line-height:normal;font-family:sans-serif;font-variant-ligatures:normal;font-variant-position:normal;font-variant-caps:normal;font-variant-numeric:normal;font-variant-alternates:normal;font-variant-east-asian:normal;font-feature-settings:normal;font-variation-settings:normal;text-indent:0;text-align:start;text-decoration:none;text-decoration-line:none;text-decoration-style:solid;text-decoration-color:#000000;letter-spacing:normal;word-spacing:normal;text-transform:none;writing-mode:lr-tb;direction:ltr;text-orientation:mixed;dominant-baseline:auto;baseline-shift:baseline;text-anchor:start;white-space:normal;shape-padding:0;shape-margin:0;inline-size:0;clip-rule:nonzero;display:inline;overflow:visible;visibility:visible;isolation:auto;mix-blend-mode:normal;color-interpolation:sRGB;color-interpolation-filters:linearRGB;solid-color:#000000;solid-opacity:1;vector-effect:none;fill:#454545;fill-opacity:1;fill-rule:nonzero;stroke:none;stroke-width:3.104;stroke-linecap:butt;stroke-linejoin:miter;stroke-miterlimit:4;stroke-dasharray:none;stroke-dashoffset:0;stroke-opacity:1.0;paint-order:markers stroke fill;color-rendering:auto;image-rendering:auto;shape-rendering:auto;text-rendering:auto;enable-background:accumulate;stop-color:#000000;stop-opacity:1;"
         d="M 47.464844 174.83203 C 46.708991 174.83203 45.794922 175.42463 45.794922 176.48047 L 45.794922 188.99805 C 45.794922 190.05394 46.708962 190.64844 47.464844 190.64844 L 50.267578 190.64844 C 51.023431 190.64844 51.935547 190.05388 51.935547 188.99805 L 51.935547 176.48047 C 51.935547 175.42457 51.02346 174.83203 50.267578 174.83203 L 47.464844 174.83203 z "
         id="path847" />
      <path
         style="color:#000000;font-style:normal;font-variant:normal;font-weight:normal;font-stretch:normal;font-size:medium;line-height:normal;font-family:sans-serif;font-variant-ligatures:normal;font-variant-position:normal;font-variant-caps:normal;font-variant-numeric:normal;font-variant-alternates:normal;font-variant-east-asian:normal;font-feature-settings:normal;font-variation-settings:normal;text-indent:0;text-align:start;text-decoration:none;text-decoration-line:none;text-decoration-style:solid;text-decoration-color:#000000;letter-spacing:normal;word-spacing:normal;text-transform:none;writing-mode:lr-tb;direction:ltr;text-orientation:mixed;dominant-baseline:auto;baseline-shift:baseline;text-anchor:start;white-space:normal;shape-padding:0;shape-margin:0;inline-size:0;clip-rule:nonzero;display:inline;overflow:visible;visibility:visible;isolation:auto;mix-blend-mode:normal;color-interpolation:sRGB;color-interpolation-filters:linearRGB;solid-color:#000000;solid-opacity:1;vector-effect:none;fill:#ffffff;fill-opacity:1;fill-rule:nonzero;stroke:none;stroke-width:3.104;stroke-linecap:butt;stroke-linejoin:miter;stroke-miterlimit:4;stroke-dasharray:none;stroke-dashoffset:0;stroke-opacity:1.0;paint-order:markers stroke fill;color-rendering:auto;image-rendering:auto;shape-rendering:auto;text-rendering:auto;enable-background:accumulate;stop-color:#000000;stop-opacity:1;"
         d="m 47.46414,176.38329 h 2.80269 c 0.0645,0 0.116423,0.0431 0.116423,0.0967 v 12.51883 c 0,0.0536 -0.05192,0.0967 -0.116423,0.0967 h -2.80269 c -0.0645,0 -0.116423,-0.0431 -0.116423,-0.0967 v -12.51883 c 0,-0.0536 0.05192,-0.0967 0.116423,-0.0967 z"
         id="path849" />
    </g>
    <g
       id="g851"
       style="opacity:1">
      <path
         style="color:#000000;font-style:normal;font-variant:normal;font-weight:normal;font-stretch:normal;font-size:medium;line-height:normal;font-family:sans-serif;font-variant-ligatures:normal;font-variant-position:normal;font-variant-caps:normal;font-variant-numeric:normal;font-variant-alternates:normal;font-variant-east-asian:normal;font-feature-settings:normal;font-variation-settings:normal;text-indent:0;text-align:start;text-decoration:none;text-decoration-line:none;text-decoration-style:solid;text-decoration-color:#000000;letter-spacing:normal;word-spacing:normal;text-transform:none;writing-mode:lr-tb;direction:ltr;text-orientation:mixed;dominant-baseline:auto;baseline-shift:baseline;text-anchor:start;white-space:normal;shape-padding:0;shape-margin:0;inline-size:0;clip-rule:nonzero;display:inline;overflow:visible;visibility:visible;isolation:auto;mix-blend-mode:normal;color-interpolation:sRGB;color-interpolation-filters:linearRGB;solid-color:#000000;solid-opacity:1;vector-effect:none;fill:#454545;fill-opacity:1;fill-rule:nonzero;stroke:none;stroke-width:3.104;stroke-linecap:butt;stroke-linejoin:miter;stroke-miterlimit:4;stroke-dasharray:none;stroke-dashoffset:0;stroke-opacity:1.0;paint-order:markers stroke fill;color-rendering:auto;image-rendering:auto;shape-rendering:auto;text-rendering:auto;enable-background:accumulate;stop-color:#000000;stop-opacity:1;"
         d="M 39.994141 174.83203 C 39.238288 174.83203 38.326172 175.42463 38.326172 176.48047 L 38.326172 188.99805 C 38.326172 190.05394 39.238259 190.64844 39.994141 190.64844 L 42.796875 190.64844 C 43.552825 190.64844 44.464844 190.05408 44.464844 188.99805 L 44.464844 176.48047 C 44.464844 175.42457 43.552757 174.83203 42.796875 174.83203 L 39.994141 174.83203 z "
         id="path853" />
      <path
         style="color:#000000;font-style:normal;font-variant:normal;font-weight:normal;font-stretch:normal;font-size:medium;line-height:normal;font-family:sans-serif;font-variant-ligatures:normal;font-variant-position:normal;font-variant-caps:normal;font-variant-numeric:normal;font-variant-alternates:normal;font-variant-east-asian:normal;font-feature-settings:normal;font-variation-settings:normal;text-indent:0;text-align:start;text-decoration:none;text-decoration-line:none;text-decoration-style:solid;text-decoration-color:#000000;letter-spacing:normal;word-spacing:normal;text-transform:none;writing-mode:lr-tb;direction:ltr;text-orientation:mixed;dominant-baseline:auto;baseline-shift:baseline;text-anchor:start;white-space:normal;shape-padding:0;shape-margin:0;inline-size:0;clip-rule:nonzero;display:inline;overflow:visible;visibility:visible;isolation:auto;mix-blend-mode:normal;color-interpolation:sRGB;color-interpolation-filters:linearRGB;solid-color:#000000;solid-opacity:1;vector-effect:none;fill:#ffffff;fill-opacity:1;fill-rule:nonzero;stroke:none;stroke-width:3.104;stroke-linecap:butt;stroke-linejoin:miter;stroke-miterlimit:4;stroke-dasharray:none;stroke-dashoffset:0;stroke-opacity:1.0;paint-order:markers stroke fill;color-rendering:auto;image-rendering:auto;shape-rendering:auto;text-rendering:auto;enable-background:accumulate;stop-color:#000000;stop-opacity:1;"
         d="m 39.99375,176.38329 h 2.80269 c 0.0645,0 0.116423,0.0431 0.116423,0.0967 v 12.51883 c 0,0.0536 -0.05193,0.0967 -0.116423,0.0967 h -2.80269 c -0.0645,0 -0.116423,-0.0431 -0.116423,-0.0967 v -12.51883 c 0,-0.0536 0.05192,-0.0967 0.116423,-0.0967 z"
         id="path855" />
    </g>
  </g>
</svg>

<svg xmlns="http://www.w3.org/2000/svg" xmlns:xlink="http://www.w3.org/1999/xlink" width="110" height="110" viewBox="0 0 29.104 29.104"><defs><linearGradient xlink:href="#a" id="b" x1="69.821" x2="55.547" y1="16.022" y2="36.762" gradientTransform="matrix(1.09803 0 0 1.09815 -28.98 155.248)" gradientUnits="userSpaceOnUse"/><linearGradient id="a"><stop offset="0" style="stop-color:silver;stop-opacity:.99607843"/><stop offset="1" style="stop-color:#858585;stop-opacity:1"/></linearGradient></defs><g transform="translate(-22.869 -174.74)"><ellipse cx="37.418" cy="189.29" rx="13.383" ry="13.385" style="display:inline;fill:url(#b);fill-opacity:1;stroke:none;stroke-width:2.92119;stroke-linecap:butt;stroke-linejoin:miter;stroke-miterlimit:9.5;stroke-dasharray:none;stroke-opacity:1;font-variation-settings:normal;opacity:1;vector-effect:none;stroke-dashoffset:0;-inkscape-stroke:none;stop-color:#000;stop-opacity:1"/><circle cx="37.068" cy="189.255" r="4.643" style="display:inline;fill:#313131;fill-opacity:1;stroke:none;stroke-width:.94436;stroke-linecap:butt;stroke-linejoin:miter;stroke-miterlimit:9.5;stroke-dasharray:none;stroke-opacity:1"/><circle cx="37.068" cy="189.255" r=".78" style="display:inline;fill:#fff;fill-opacity:1;stroke:none;stroke-width:2.92119;stroke-linecap:butt;stroke-linejoin:miter;stroke-miterlimit:9.5;stroke-dasharray:none;stroke-opacity:1"/><path d="M46.757 189.437a9.34 9.34 0 0 1-5.377 8.458" style="display:inline;fill:none;fill-opacity:1;stroke:#fff;stroke-width:5.32974;stroke-linecap:butt;stroke-linejoin:miter;stroke-miterlimit:12.4;stroke-dasharray:none;stroke-opacity:.376289"/><path d="M-28.02-189.26a9.34 9.34 0 0 1-5.377 8.458" style="display:inline;fill:none;fill-opacity:1;stroke:#fff;stroke-width:5.32974;stroke-linecap:butt;stroke-linejoin:miter;stroke-miterlimit:12.4;stroke-dasharray:none;stroke-opacity:.376289" transform="scale(-1)"/><path d="M37.423 175.913a13.383 13.385 0 0 0-13.384 13.385 13.383 13.385 0 0 0 .008.215 13.383 13.385 0 0 1 13.376-13.233 13.383 13.385 0 0 1 13.376 13.17 13.383 13.385 0 0 0 .008-.152 13.383 13.385 0 0 0-13.384-13.385" style="display:inline;opacity:.187;fill:#fef2fd;fill-opacity:1;stroke:none;stroke-width:2.92119;stroke-linecap:butt;stroke-linejoin:miter;stroke-miterlimit:9.5;stroke-dasharray:none;stroke-opacity:1"/><path d="M50.793 189.054a13.383 13.385 0 0 1-13.375 13.215 13.383 13.385 0 0 1-13.374-13.146 13.383 13.385 0 0 0-.009.17 13.383 13.385 0 0 0 13.383 13.384 13.383 13.385 0 0 0 13.383-13.384 13.383 13.385 0 0 0-.008-.24" style="display:inline;fill:#000;fill-opacity:.0912281;stroke:none;stroke-width:2.92119;stroke-linecap:butt;stroke-linejoin:miter;stroke-miterlimit:9.5;stroke-dasharray:none;stroke-opacity:1"/><g style="opacity:1"><path d="M47.465 174.832c-.756 0-1.67.593-1.67 1.648v12.518c0 1.056.914 1.65 1.67 1.65h2.803c.755 0 1.668-.594 1.668-1.65V176.48c0-1.055-.913-1.648-1.668-1.648z" style="color:#000;font-style:normal;font-variant:normal;font-weight:400;font-stretch:normal;font-size:medium;line-height:normal;font-family:sans-serif;font-variant-ligatures:normal;font-variant-position:normal;font-variant-caps:normal;font-variant-numeric:normal;font-variant-alternates:normal;font-variant-east-asian:normal;font-feature-settings:normal;font-variation-settings:normal;text-indent:0;text-align:start;text-decoration:none;text-decoration-line:none;text-decoration-style:solid;text-decoration-color:#000;letter-spacing:normal;word-spacing:normal;text-transform:none;writing-mode:lr-tb;direction:ltr;text-orientation:mixed;dominant-baseline:auto;baseline-shift:baseline;text-anchor:start;white-space:normal;shape-padding:0;shape-margin:0;inline-size:0;clip-rule:nonzero;display:inline;overflow:visible;visibility:visible;isolation:auto;mix-blend-mode:normal;color-interpolation:sRGB;color-interpolation-filters:linearRGB;solid-color:#000;solid-opacity:1;vector-effect:none;fill:#454545;fill-opacity:1;fill-rule:nonzero;stroke:none;stroke-width:3.104;stroke-linecap:butt;stroke-linejoin:miter;stroke-miterlimit:4;stroke-dasharray:none;stroke-dashoffset:0;stroke-opacity:1;paint-order:markers stroke fill;color-rendering:auto;image-rendering:auto;shape-rendering:auto;text-rendering:auto;stop-color:#000;stop-opacity:1"/><path d="M47.464 176.383h2.803c.064 0 .116.043.116.097v12.519c0 .053-.052.097-.116.097h-2.803c-.064 0-.116-.044-.116-.097V176.48c0-.054.052-.097.116-.097" style="color:#000;font-style:normal;font-variant:normal;font-weight:400;font-stretch:normal;font-size:medium;line-height:normal;font-family:sans-serif;font-variant-ligatures:normal;font-variant-position:normal;font-variant-caps:normal;font-variant-numeric:normal;font-variant-alternates:normal;font-variant-east-asian:normal;font-feature-settings:normal;font-variation-settings:normal;text-indent:0;text-align:start;text-decoration:none;text-decoration-line:none;text-decoration-style:solid;text-decoration-color:#000;letter-spacing:normal;word-spacing:normal;text-transform:none;writing-mode:lr-tb;direction:ltr;text-orientation:mixed;dominant-baseline:auto;baseline-shift:baseline;text-anchor:start;white-space:normal;shape-padding:0;shape-margin:0;inline-size:0;clip-rule:nonzero;display:inline;overflow:visible;visibility:visible;isolation:auto;mix-blend-mode:normal;color-interpolation:sRGB;color-interpolation-filters:linearRGB;solid-color:#000;solid-opacity:1;vector-effect:none;fill:#fff;fill-opacity:1;fill-rule:nonzero;stroke:none;stroke-width:3.104;stroke-linecap:butt;stroke-linejoin:miter;stroke-miterlimit:4;stroke-dasharray:none;stroke-dashoffset:0;stroke-opacity:1;paint-order:markers stroke fill;color-rendering:auto;image-rendering:auto;shape-rendering:auto;text-rendering:auto;stop-color:#000;stop-opacity:1"/></g><g style="opacity:1"><path d="M39.994 174.832c-.756 0-1.668.593-1.668 1.648v12.518c0 1.056.912 1.65 1.668 1.65h2.803c.756 0 1.668-.594 1.668-1.65V176.48c0-1.055-.912-1.648-1.668-1.648z" style="color:#000;font-style:normal;font-variant:normal;font-weight:400;font-stretch:normal;font-size:medium;line-height:normal;font-family:sans-serif;font-variant-ligatures:normal;font-variant-position:normal;font-variant-caps:normal;font-variant-numeric:normal;font-variant-alternates:normal;font-variant-east-asian:normal;font-feature-settings:normal;font-variation-settings:normal;text-indent:0;text-align:start;text-decoration:none;text-decoration-line:none;text-decoration-style:solid;text-decoration-color:#000;letter-spacing:normal;word-spacing:normal;text-transform:none;writing-mode:lr-tb;direction:ltr;text-orientation:mixed;dominant-baseline:auto;baseline-shift:baseline;text-anchor:start;white-space:normal;shape-padding:0;shape-margin:0;inline-size:0;clip-rule:nonzero;display:inline;overflow:visible;visibility:visible;isolation:auto;mix-blend-mode:normal;color-interpolation:sRGB;color-interpolation-filters:linearRGB;solid-color:#000;solid-opacity:1;vector-effect:none;fill:#454545;fill-opacity:1;fill-rule:nonzero;stroke:none;stroke-width:3.104;stroke-linecap:butt;stroke-linejoin:miter;stroke-miterlimit:4;stroke-dasharray:none;stroke-dashoffset:0;stroke-opacity:1;paint-order:markers stroke fill;color-rendering:auto;image-rendering:auto;shape-rendering:auto;text-rendering:auto;stop-color:#000;stop-opacity:1"/><path d="M39.994 176.383h2.802c.065 0 .117.043.117.097v12.519c0 .053-.052.097-.117.097h-2.802c-.065 0-.117-.044-.117-.097V176.48c0-.054.052-.097.117-.097" style="color:#000;font-style:normal;font-variant:normal;font-weight:400;font-stretch:normal;font-size:medium;line-height:normal;font-family:sans-serif;font-variant-ligatures:normal;font-variant-position:normal;font-variant-caps:normal;font-variant-numeric:normal;font-variant-alternates:normal;font-variant-east-asian:normal;font-feature-settings:normal;font-variation-settings:normal;text-indent:0;text-align:start;text-decoration:none;text-decoration-line:none;text-decoration-style:solid;text-decoration-color:#000;letter-spacing:normal;word-spacing:normal;text-transform:none;writing-mode:lr-tb;direction:ltr;text-orientation:mixed;dominant-baseline:auto;baseline-shift:baseline;text-anchor:start;white-space:normal;shape-padding:0;shape-margin:0;inline-size:0;clip-rule:nonzero;display:inline;overflow:visible;visibility:visible;isolation:auto;mix-blend-mode:normal;color-interpolation:sRGB;color-interpolation-filters:linearRGB;solid-color:#000;solid-opacity:1;vector-effect:none;fill:#fff;fill-opacity:1;fill-rule:nonzero;stroke:none;stroke-width:3.104;stroke-linecap:butt;stroke-linejoin:miter;stroke-miterlimit:4;stroke-dasharray:none;stroke-dashoffset:0;stroke-opacity:1;paint-order:markers stroke fill;color-rendering:auto;image-rendering:auto;shape-rendering:auto;text-rendering:auto;stop-color:#000;stop-opacity:1"/></g></g></svg>
